X: 305724
M: 2/4
L: 1/16
K: C
EF |\
d2^FA G2^fa | g2eg =f2d2 | c2ed cBAG | ^FGAG G=FED H|]
(G3B/A/) (d3d/c/) | (B3c/B/) (A3c/B/) | G2g2^f2d2 | g4 ^g4 |\
a2d2 =f2B2 | d2G2 g4 | c2cB cdef | g2G2c2z2 |]
f4 fedc | B2BA BGAB | c2cB cdef | g2ec c'2z2 |\
f4 fedc | B2BA BGAB | c2g^f g2eG | c6 "^D.C."y|]


